assets/illustrations/screens/Screen-control-panel-off.svg

<svg width="480" height="304" viewBox="0 0 480 304" fill="none" xmlns="http://www.w3.org/2000/svg">
<path d="M24 40C24 31.1634 31.1634 24 40 24H440C448.837 24 456 31.1634 456 40V56H24V40Z" fill="#1A2437"/>
<rect x="40" y="34" width="56" height="12" rx="6" fill="#8CA0B3"/>
<rect x="104" y="37" width="24" height="6" rx="3" fill="#B9CBD3"/>
<rect x="136" y="37" width="32" height="6" rx="3" fill="#B9CBD3"/>
<path d="M251.53 47.7942V35.6785C251.53 35.5499 251.629 35.4727 251.729 35.4727H254.11C254.209 35.4727 254.284 35.5499 254.308 35.627L254.457 36.373C255.077 35.627 255.97 35.2669 257.087 35.2669C259.294 35.2669 260.956 36.7331 260.956 39.9743C260.956 43.2155 259.319 44.7074 257.087 44.7074C255.995 44.7074 255.077 44.3473 254.457 43.5756V47.7685C254.457 47.8971 254.358 47.9743 254.259 47.9743H251.704C251.605 48 251.53 47.9229 251.53 47.7942ZM254.482 40.7717C254.482 40.8489 254.482 40.9261 254.507 41.0032C254.78 41.955 255.4 42.3666 256.169 42.3666C257.211 42.3666 257.93 41.6721 257.93 40C257.93 38.328 257.211 37.6335 256.169 37.6335C255.35 37.6335 254.73 38.045 254.507 38.9968C254.482 39.074 254.482 39.1254 254.482 39.2026V40.7717Z" fill="white"/>
<path d="M234.241 32H236.796C236.92 32 236.995 32.1029 236.995 32.2058V36.3987C237.615 35.6527 238.533 35.2669 239.624 35.2669C241.856 35.2669 243.494 36.7588 243.494 40C243.494 43.2412 241.832 44.7074 239.624 44.7074C238.508 44.7074 237.615 44.3473 236.995 43.6013L236.846 44.3473C236.821 44.4502 236.747 44.5016 236.647 44.5016H234.266C234.142 44.5016 234.068 44.3987 234.068 44.2958V32.2058C234.043 32.0772 234.117 32 234.241 32ZM236.995 40.8232C236.995 40.9003 236.995 40.9518 237.02 41.0289C237.243 41.9807 237.863 42.3923 238.681 42.3923C239.723 42.3923 240.443 41.6977 240.443 40.0257C240.443 38.3537 239.723 37.6592 238.681 37.6592C237.912 37.6592 237.292 38.0707 237.02 39.0225C236.995 39.0997 236.995 39.1768 236.995 39.254V40.8232Z" fill="white"/>
<path d="M244.188 32H246.743C246.867 32 246.942 32.1029 246.942 32.2058V44.3215C246.942 44.4502 246.842 44.5273 246.743 44.5273H244.188C244.064 44.5273 243.99 44.4244 243.99 44.3215V32.2058C243.99 32.0772 244.064 32 244.188 32Z" fill="white"/>
<path d="M247.76 34.1093V32.2058C247.76 32.0772 247.859 32 247.958 32H250.513C250.637 32 250.712 32.1029 250.712 32.2058V34.1093C250.712 34.2379 250.613 34.3151 250.513 34.3151H247.958C247.834 34.3151 247.76 34.2122 247.76 34.1093ZM247.958 35.4727H250.513C250.637 35.4727 250.712 35.5756 250.712 35.6785V44.3215C250.712 44.4502 250.613 44.5273 250.513 44.5273H247.958C247.834 44.5273 247.76 44.4244 247.76 44.3215V35.6785C247.76 35.5498 247.834 35.4727 247.958 35.4727Z" fill="white"/>
<path d="M225.535 32C223.923 32 222.261 32.2572 221.12 33.0032C219.284 34.1865 218.738 36.5016 218.788 38.6109C218.838 40.4373 219.309 42.418 220.574 43.7814C221.765 45.0675 224.245 45.6592 225.932 45.6592C226.006 45.6592 226.081 45.7106 226.081 45.8135V47.6656C226.081 47.8457 226.229 48 226.403 48H226.428C226.502 48 226.552 47.9743 226.601 47.9228C227.445 47.1769 228.288 46.4051 229.132 45.6077C229.925 44.8617 230.818 44.0643 231.414 43.164C232.703 41.2605 232.902 38.5338 232.48 36.2958C232.059 34.135 230.595 32.7203 228.536 32.283C227.668 32.1286 226.601 32 225.535 32Z" fill="#80E3EB"/>
<path d="M24 56H456V264C456 272.837 448.837 280 440 280H40C31.1634 280 24 272.837 24 264V56Z" fill="#F3F6FA"/>
<rect width="432" height="32" transform="translate(24 56)" fill="white"/>
<rect x="40" y="68" width="88" height="8" rx="4" fill="#B9CBD3"/>
<rect x="168" y="104" width="88" height="6" rx="3" fill="#B9CBD3"/>
<rect x="168" y="118" width="128" height="50" rx="8" fill="white"/>
<rect x="180" y="130" width="24" height="24" rx="4" fill="#E8F2FF"/>
<rect x="212" y="130" width="72" height="6" rx="3" fill="#8CA0B3"/>
<rect x="212" y="140" width="32" height="6" rx="3" fill="#D2DFE6"/>
<rect x="212" y="150" width="40" height="6" rx="3" fill="#D2DFE6"/>
<rect x="168" y="192" width="48" height="6" rx="3" fill="#B9CBD3"/>
<rect x="168" y="206" width="128" height="50" rx="8" fill="white"/>
<rect x="180" y="218" width="24" height="24" rx="4" fill="#E8F2FF"/>
<rect x="212" y="218" width="56" height="6" rx="3" fill="#8CA0B3"/>
<rect x="212" y="228" width="72" height="6" rx="3" fill="#D2DFE6"/>
<rect x="212" y="238" width="40" height="6" rx="3" fill="#D2DFE6"/>
<rect x="304" y="206" width="128" height="50" rx="8" fill="white"/>
<rect x="316" y="218" width="24" height="24" rx="4" fill="#E8F2FF"/>
<rect x="348" y="218" width="64" height="6" rx="3" fill="#8CA0B3"/>
<rect x="348" y="228" width="56" height="6" rx="3" fill="#D2DFE6"/>
<rect x="348" y="238" width="72" height="6" rx="3" fill="#D2DFE6"/>
</svg>

<svg width="480" height="304" fill="none" xmlns="http://www.w3.org/2000/svg"><g filter="url(#screen-control-panel-off__a)"><path d="M24 40c0-8.837 7.163-16 16-16h400c8.837 0 16 7.163 16 16v16H24V40Z" fill="#1A2437"/><rect x="40" y="34" width="56" height="12" rx="6" fill="#8CA0B3"/><rect x="104" y="37" width="24" height="6" rx="3" fill="#B9CBD3"/><rect x="136" y="37" width="32" height="6" rx="3" fill="#B9CBD3"/><path d="M251.53 47.794V35.68a.2.2 0 0 1 .199-.206h2.381c.099 0 .174.077.198.154l.149.746c.62-.746 1.513-1.106 2.63-1.106 2.207 0 3.869 1.466 3.869 4.707 0 3.242-1.637 4.733-3.869 4.733-1.092 0-2.01-.36-2.63-1.131v4.193a.199.199 0 0 1-.198.205h-2.555c-.099.026-.174-.051-.174-.18Zm2.952-7.022c0 .077 0 .154.025.231.273.952.893 1.364 1.662 1.364 1.042 0 1.761-.695 1.761-2.367 0-1.672-.719-2.367-1.761-2.367-.819 0-1.439.412-1.662 1.364-.025.077-.025.128-.025.206v1.569ZM234.241 32h2.555c.124 0 .199.103.199.206v4.193c.62-.746 1.538-1.132 2.629-1.132 2.232 0 3.87 1.492 3.87 4.733 0 3.241-1.662 4.707-3.87 4.707-1.116 0-2.009-.36-2.629-1.106l-.149.746c-.025.103-.099.155-.199.155h-2.381c-.124 0-.198-.103-.198-.206v-12.09c-.025-.129.049-.206.173-.206Zm2.754 8.823c0 .077 0 .129.025.206.223.952.843 1.363 1.661 1.363 1.042 0 1.762-.694 1.762-2.366 0-1.672-.72-2.367-1.762-2.367-.769 0-1.389.412-1.661 1.364-.025.077-.025.154-.025.231v1.57ZM244.188 32h2.555c.124 0 .199.103.199.206V44.32a.2.2 0 0 1-.199.206h-2.555c-.124 0-.198-.103-.198-.206V32.206c0-.129.074-.206.198-.206Zm3.572 2.11v-1.904c0-.129.099-.206.198-.206h2.555c.124 0 .199.103.199.206v1.903a.2.2 0 0 1-.199.206h-2.555c-.124 0-.198-.103-.198-.206Zm.198 1.363h2.555c.124 0 .199.103.199.206v8.642a.2.2 0 0 1-.199.206h-2.555c-.124 0-.198-.103-.198-.206V35.68c0-.13.074-.206.198-.206Z" fill="#fff"/><path d="M225.535 32c-1.612 0-3.274.257-4.415 1.003-1.836 1.184-2.382 3.499-2.332 5.608.05 1.826.521 3.807 1.786 5.17 1.191 1.287 3.671 1.878 5.358 1.878.074 0 .149.052.149.154v1.853c0 .18.148.334.322.334h.025a.22.22 0 0 0 .173-.077c.844-.746 1.687-1.518 2.531-2.315.793-.746 1.686-1.544 2.282-2.444 1.289-1.904 1.488-4.63 1.066-6.868-.421-2.161-1.885-3.576-3.944-4.013a17.573 17.573 0 0 0-3.001-.283Z" fill="#80E3EB"/><path d="M24 56h432v208c0 8.837-7.163 16-16 16H40c-8.837 0-16-7.163-16-16V56Z" fill="#F3F6FA"/><path fill="#fff" d="M24 56h432v32H24z"/><rect x="40" y="68" width="88" height="8" rx="4" fill="#B9CBD3"/><rect x="168" y="104" width="88" height="6" rx="3" fill="#B9CBD3"/><rect x="168" y="118" width="128" height="50" rx="8" fill="#fff"/><rect x="180" y="130" width="24" height="24" rx="4" fill="#E8F2FF"/><rect x="212" y="130" width="72" height="6" rx="3" fill="#8CA0B3"/><rect x="212" y="140" width="32" height="6" rx="3" fill="#D2DFE6"/><rect x="212" y="150" width="40" height="6" rx="3" fill="#D2DFE6"/><rect x="168" y="192" width="48" height="6" rx="3" fill="#B9CBD3"/><rect x="168" y="206" width="128" height="50" rx="8" fill="#fff"/><rect x="180" y="218" width="24" height="24" rx="4" fill="#E8F2FF"/><rect x="212" y="218" width="56" height="6" rx="3" fill="#8CA0B3"/><rect x="212" y="228" width="72" height="6" rx="3" fill="#D2DFE6"/><rect x="212" y="238" width="40" height="6" rx="3" fill="#D2DFE6"/><rect x="304" y="206" width="128" height="50" rx="8" fill="#fff"/><rect x="316" y="218" width="24" height="24" rx="4" fill="#E8F2FF"/><rect x="348" y="218" width="64" height="6" rx="3" fill="#8CA0B3"/><rect x="348" y="228" width="56" height="6" rx="3" fill="#D2DFE6"/><rect x="348" y="238" width="72" height="6" rx="3" fill="#D2DFE6"/></g><defs><filter id="screen-control-panel-off__a" x="-4" y="0" width="488" height="312" filterUnits="userSpaceOnUse" color-interpolation-filters="sRGB"><feFlood flood-opacity="0" result="BackgroundImageFix"/><feColorMatrix in="SourceAlpha" values="0 0 0 0 0 0 0 0 0 0 0 0 0 0 0 0 0 0 127 0" result="hardAlpha"/><feOffset dy="4"/><feGaussianBlur stdDeviation="2"/><feComposite in2="hardAlpha" operator="out"/><feColorMatrix values="0 0 0 0 0 0 0 0 0 0 0 0 0 0 0 0 0 0 0.25 0"/><feBlend in2="BackgroundImageFix" result="effect1_dropShadow_12035_6917"/><feBlend in="SourceGraphic" in2="effect1_dropShadow_12035_6917" result="shape"/></filter></defs></svg>
